_inc/systems/logos/android.svg

<?xml version="1.0" encoding="utf-8"?>
<svg viewBox="0 0 788 120" version="1.1" id="svg16" width="788" height="120" xmlns="http://www.w3.org/2000/svg">
  <path style="stroke-width: 9.48393; fill: rgb(255, 255, 255);" id="path22" d="M 37.955 38.545 C 49.227 38.545 58.591 44.364 63.046 50.636 L 63.046 40.091 L 80.227 40.091 L 80.227 118.364 L 67.864 118.364 C 65.136 118.364 62.955 116.182 62.955 113.455 L 62.955 107.818 C 58.591 114.182 49.227 120 37.955 120 C 16.5 120 0.227 101.636 0.227 79.273 C 0.227 56.909 16.5 38.545 37.955 38.545 M 41.046 54.182 C 27.136 54.182 17.682 65.182 17.682 79.273 C 17.682 93.364 27.046 104.364 41.046 104.364 C 54.955 104.364 64.409 93.364 64.409 79.273 C 64.409 65.182 55.046 54.182 41.046 54.182"/>
  <path style="stroke-width: 9.48393; fill: rgb(255, 255, 255);" id="path24" d="M 99.773 40.091 L 117.046 40.091 L 117.046 50.727 C 121.773 42.909 130.682 38.545 140.864 38.545 C 159.046 38.545 170.773 51.364 170.773 71.273 L 170.773 118.364 L 158.409 118.364 C 155.682 118.364 153.5 116.182 153.5 113.455 L 153.5 74.091 C 153.5 61.727 147.227 54.182 137.227 54.182 C 125.773 54.182 117.046 63.091 117.046 79.818 L 117.046 118.364 L 104.682 118.364 C 101.955 118.364 99.773 116.182 99.773 113.455 Z"/>
  <path style="stroke-width: 9.48393; fill: rgb(255, 255, 255);" id="path26" d="M 222.136 38.545 C 233.409 38.545 242.773 44.364 247.227 50.636 L 247.227 1 L 264.409 1 L 264.409 118.455 L 252.046 118.455 C 249.318 118.455 247.137 116.273 247.137 113.545 L 247.137 107.909 C 242.773 114.182 233.318 120 222.046 120 C 200.591 120 184.318 101.636 184.318 79.273 C 184.409 56.909 200.682 38.545 222.136 38.545 M 225.227 54.182 C 211.318 54.182 201.864 65.182 201.864 79.273 C 201.864 93.364 211.227 104.364 225.227 104.364 C 239.136 104.364 248.591 93.364 248.591 79.273 C 248.591 65.182 239.136 54.182 225.227 54.182"/>
  <path style="stroke-width: 9.48393; fill: rgb(255, 255, 255);" id="path28" d="M 283.955 40.091 L 301.137 40.091 L 301.137 54 C 304.137 45.091 312.864 39.273 321.773 39.273 C 323.955 39.273 326.137 39.455 328.5 39.909 L 328.5 57.636 C 325.5 56.727 323.046 56.182 319.864 56.182 C 309.955 56.182 301.046 64.455 301.046 80.182 L 301.046 118.364 L 288.682 118.364 C 285.955 118.364 283.773 116.182 283.773 113.455 L 283.773 40.091 Z"/>
  <path style="stroke-width: 9.48393; fill: rgb(255, 255, 255);" id="path30" d="M 375.046 120 C 351.864 120 334.046 102 334.046 79.273 C 334.046 56.545 351.864 38.545 375.046 38.545 C 398.227 38.545 416.046 56.545 416.046 79.273 C 416.046 102 398.227 120 375.046 120 M 375.046 104 C 388.864 104 398.5 93.182 398.5 79.273 C 398.5 65.364 388.773 54.545 375.046 54.545 C 361.137 54.545 351.409 65.364 351.409 79.273 C 351.409 93.182 361.137 104 375.046 104"/>
  <path style="stroke-width: 9.48393; fill: rgb(255, 255, 255);" id="path32" d="M 438.591 23 C 432.318 23 427.046 17.818 427.046 11.455 C 427.046 5.182 432.409 0 438.591 0 C 445.046 0 450.046 5.182 450.046 11.455 C 450.046 17.909 445.046 23 438.591 23 M 430.046 40.091 L 447.227 40.091 L 447.227 118.364 L 434.955 118.364 C 432.227 118.364 430.046 116.182 430.046 113.455 Z"/>
  <path style="stroke-width: 9.48393; fill: rgb(255, 255, 255);" id="path34" d="M 499.136 38.545 C 510.409 38.545 519.773 44.364 524.227 50.636 L 524.227 1 L 541.409 1 L 541.409 118.455 L 529.046 118.455 C 526.318 118.455 524.136 116.273 524.136 113.545 L 524.136 107.909 C 519.773 114.182 510.318 120 499.046 120 C 477.591 120 461.318 101.636 461.318 79.273 C 461.409 56.909 477.682 38.545 499.136 38.545 M 502.318 54.182 C 488.409 54.182 478.955 65.182 478.955 79.273 C 478.955 93.364 488.318 104.364 502.318 104.364 C 516.227 104.364 525.682 93.364 525.682 79.273 C 525.682 65.182 516.227 54.182 502.318 54.182"/>
  <path style="fill-opacity: 1; stroke-width: 9.48393; fill: rgb(255, 255, 255);" id="path36" d="M 731.5 88.818 C 726.682 88.818 722.773 84.909 722.773 80.091 C 722.773 75.273 726.682 71.364 731.5 71.364 C 736.318 71.364 740.227 75.273 740.227 80.091 C 740.227 84.909 736.318 88.818 731.5 88.818 M 635.409 88.818 C 630.591 88.818 626.682 84.909 626.682 80.091 C 626.682 75.273 630.591 71.364 635.409 71.364 C 640.227 71.364 644.137 75.273 644.137 80.091 C 644.137 84.909 640.227 88.818 635.409 88.818 M 734.591 36.455 L 752.046 6.364 C 753.046 4.636 752.409 2.455 750.682 1.455 C 748.955 0.455 746.773 1.091 745.773 2.818 L 728.137 33.273 C 714.682 27.091 699.591 23.636 683.5 23.636 C 667.409 23.636 652.227 27.091 638.773 33.182 L 621.136 2.727 C 620.137 1 617.955 0.364 616.227 1.364 C 614.5 2.364 613.864 4.545 614.864 6.273 L 632.227 36.364 C 602.409 52.636 581.955 82.818 578.955 118.545 L 787.773 118.545 C 784.864 82.909 764.5 52.727 734.591 36.455" class="logo-android__andy-icon "/>
</svg>

<svg xmlns="http://www.w3.org/2000/svg" viewBox="0 0 788 120"><path d="M37.96 38.55c11.27 0 20.63 5.81 25.09 12.09V40.09h17.18v78.27H67.86a4.9 4.9 0 0 1-4.9-4.9v-5.64c-4.37 6.36-13.73 12.18-25 12.18C16.5 120 .23 101.64.23 79.27S16.5 38.55 37.96 38.55m3.09 15.63c-13.91 0-23.37 11-23.37 25.1 0 14.08 9.37 25.08 23.37 25.08 13.9 0 23.36-11 23.36-25.09s-9.36-25.09-23.36-25.09M99.77 40.1h17.28v10.63c4.72-7.82 13.63-12.18 23.81-12.18 18.19 0 29.91 12.81 29.91 32.72v47.1h-12.36a4.9 4.9 0 0 1-4.91-4.92V74.1c0-12.36-6.27-19.9-16.27-19.9-11.46 0-20.18 8.9-20.18 25.63v38.54h-12.37a4.9 4.9 0 0 1-4.9-4.9Zm122.37-1.55c11.27 0 20.63 5.81 25.09 12.09V1h17.18v117.46h-12.36a4.9 4.9 0 0 1-4.91-4.91v-5.64c-4.37 6.27-13.82 12.09-25.1 12.09-21.45 0-37.72-18.36-37.72-40.73.09-22.36 16.36-40.72 37.82-40.72m3.09 15.63c-13.91 0-23.37 11-23.37 25.1 0 14.08 9.37 25.08 23.37 25.08 13.9 0 23.36-11 23.36-25.09s-9.45-25.09-23.36-25.09m58.73-14.08h17.18V54c3-8.9 11.72-14.73 20.63-14.73 2.19 0 4.37.18 6.73.64v17.73c-3-.91-5.45-1.46-8.64-1.46-9.9 0-18.81 8.27-18.81 24v38.18h-12.37a4.9 4.9 0 0 1-4.9-4.9V40.08Zm91.09 79.9c-23.19 0-41-18-41-40.73s17.81-40.72 41-40.72c23.18 0 41 18 41 40.72 0 22.73-17.82 40.73-41 40.73m0-16c13.81 0 23.45-10.82 23.45-24.73s-9.73-24.72-23.45-24.72c-13.91 0-23.64 10.81-23.64 24.72S361.14 104 375.05 104m63.55-81a11.6 11.6 0 0 1-11.55-11.54C427.05 5.18 432.4 0 438.59 0a11.4 11.4 0 0 1 11.46 11.46c0 6.45-5 11.54-11.46 11.54m-8.54 17.1h17.18v78.26h-12.28a4.9 4.9 0 0 1-4.9-4.9Zm69.09-1.55c11.27 0 20.63 5.81 25.09 12.09V1h17.18v117.46h-12.36a4.9 4.9 0 0 1-4.91-4.91v-5.64c-4.37 6.27-13.82 12.09-25.1 12.09-21.45 0-37.72-18.36-37.72-40.73.09-22.36 16.36-40.72 37.82-40.72m3.18 15.63c-13.91 0-23.37 11-23.37 25.1 0 14.08 9.37 25.08 23.37 25.08 13.9 0 23.36-11 23.36-25.09s-9.45-25.09-23.36-25.09" style="stroke-width:9.48393;fill:#fff"/><path d="M731.5 88.82a8.73 8.73 0 1 1 0-17.46 8.73 8.73 0 0 1 0 17.46m-96.1 0a8.73 8.73 0 1 1 .01-17.46 8.73 8.73 0 0 1 0 17.46m99.18-52.36 17.46-30.1a3.6 3.6 0 1 0-6.28-3.54l-17.63 30.45a106.5 106.5 0 0 0-44.64-9.63c-16.1 0-31.27 3.45-44.73 9.54L621.14 2.73a3.6 3.6 0 1 0-6.27 3.55l17.36 30.08c-29.82 16.28-50.27 46.46-53.27 82.19h208.81c-2.9-35.64-23.27-65.82-53.18-82.1" class="logo-android__andy-icon" style="fill-opacity:1;stroke-width:9.48393;fill:#fff"/></svg>
